client/public/img/game/fall/residues/oak_tree_residue.svg

<?xml version="1.0" encoding="UTF-8" standalone="no"?>
<!-- Created with Inkscape (http://www.inkscape.org/) -->

<svg
   width="236.92624"
   height="217.72469"
   viewBox="0 0 62.686737 57.60633"
   version="1.1"
   id="svg1062"
   xmlns="http://www.w3.org/2000/svg"
   xmlns:svg="http://www.w3.org/2000/svg"
   xmlns:rdf="http://www.w3.org/1999/02/22-rdf-syntax-ns#"
   xmlns:cc="http://creativecommons.org/ns#"
   xmlns:dc="http://purl.org/dc/elements/1.1/">
  <defs
     id="defs1059" />
  <g
     id="layer1"
     transform="translate(8.3393664,10.640721)">
    <path
       style="fill:#6d4a2c;fill-opacity:1;stroke:#312114;stroke-width:0.79375;stroke-linejoin:round;stroke-dasharray:none;stroke-opacity:1"
       id="path1620"
       d="M 14.949099,9.1020719 12.335946,11.271303 11.489719,14.560379 8.1080634,14.24648 5.1839617,15.973835 3.0147308,13.360683 -0.27434587,12.514455 0.03955379,9.1327998 -1.6878013,6.2086981 0.92535078,4.0394672 1.7715784,0.75039054 5.1532339,1.0642902 8.0773355,-0.66306492 10.246566,1.9500872 l 3.289077,0.8462276 -0.3139,3.3816555 z"
       transform="matrix(1.6576083,0,0,1.6576083,11.550334,5.4728147)" />
    <path
       style="fill:#5f4316;fill-opacity:0;fill-rule:nonzero;stroke:#312114;stroke-width:0.30749;stroke-linejoin:miter;stroke-dasharray:none;stroke-opacity:1"
       id="path1620-8"
       d="M 14.949099,9.1020719 12.335946,11.271303 11.489719,14.560379 8.1080634,14.24648 5.1839617,15.973835 3.0147308,13.360683 -0.27434587,12.514455 0.03955379,9.1327998 -1.6878013,6.2086981 0.92535078,4.0394672 1.7715784,0.75039054 5.1532339,1.0642902 8.0773355,-0.66306492 10.246566,1.9500872 l 3.289077,0.8462276 -0.3139,3.3816555 z"
       transform="matrix(1.4263092,0,0,1.4263092,13.083996,7.2434982)" />
    <path
       style="fill:#5f4316;fill-opacity:0;fill-rule:nonzero;stroke:#312114;stroke-width:0.30749;stroke-linejoin:miter;stroke-dasharray:none;stroke-opacity:1"
       id="path1620-8-5"
       d="M 14.949099,9.1020719 12.335946,11.271303 11.489719,14.560379 8.1080634,14.24648 5.1839617,15.973835 3.0147308,13.360683 -0.27434587,12.514455 0.03955379,9.1327998 -1.6878013,6.2086981 0.92535078,4.0394672 1.7715784,0.75039054 5.1532339,1.0642902 8.0773355,-0.66306492 10.246566,1.9500872 l 3.289077,0.8462276 -0.3139,3.3816555 z"
       transform="matrix(1.2807363,0,0,1.2807363,14.04924,8.357915)" />
    <path
       style="fill:#5f4316;fill-opacity:0;fill-rule:nonzero;stroke:#312114;stroke-width:0.30749;stroke-linejoin:miter;stroke-dasharray:none;stroke-opacity:1"
       id="path1620-8-5-7"
       d="M 14.949099,9.1020719 12.335946,11.271303 11.489719,14.560379 8.1080634,14.24648 5.1839617,15.973835 3.0147308,13.360683 -0.27434587,12.514455 0.03955379,9.1327998 -1.6878013,6.2086981 0.92535078,4.0394672 1.7715784,0.75039054 5.1532339,1.0642902 8.0773355,-0.66306492 10.246566,1.9500872 l 3.289077,0.8462276 -0.3139,3.3816555 z"
       transform="matrix(1.1429956,0,0,1.1429956,14.96255,9.4123729)" />
    <path
       style="fill:#5f4316;fill-opacity:0;fill-rule:nonzero;stroke:#312114;stroke-width:0.30749;stroke-linejoin:miter;stroke-dasharray:none;stroke-opacity:1"
       id="path1620-8-5-7-3"
       d="M 14.949099,9.1020719 12.335946,11.271303 11.489719,14.560379 8.1080634,14.24648 5.1839617,15.973835 3.0147308,13.360683 -0.27434587,12.514455 0.03955379,9.1327998 -1.6878013,6.2086981 0.92535078,4.0394672 1.7715784,0.75039054 5.1532339,1.0642902 8.0773355,-0.66306492 10.246566,1.9500872 l 3.289077,0.8462276 -0.3139,3.3816555 z"
       transform="matrix(1.0048732,0,0,1.0048732,15.87839,10.469753)" />
    <path
       style="fill:#5f4316;fill-opacity:0;fill-rule:nonzero;stroke:#312114;stroke-width:0.30749;stroke-linejoin:miter;stroke-dasharray:none;stroke-opacity:1"
       id="path1620-8-5-7-3-2"
       d="M 14.949099,9.1020719 12.335946,11.271303 11.489719,14.560379 8.1080634,14.24648 5.1839617,15.973835 3.0147308,13.360683 -0.27434587,12.514455 0.03955379,9.1327998 -1.6878013,6.2086981 0.92535078,4.0394672 1.7715784,0.75039054 5.1532339,1.0642902 8.0773355,-0.66306492 10.246566,1.9500872 l 3.289077,0.8462276 -0.3139,3.3816555 z"
       transform="matrix(0.84836116,0,0,0.84836116,16.916166,11.667913)" />
    <path
       style="fill:#5f4316;fill-opacity:0;fill-rule:nonzero;stroke:#312114;stroke-width:0.30749;stroke-linejoin:miter;stroke-dasharray:none;stroke-opacity:1"
       id="path1620-8-5-7-3-2-7"
       d="M 14.949099,9.1020719 12.335946,11.271303 11.489719,14.560379 8.1080634,14.24648 5.1839617,15.973835 3.0147308,13.360683 -0.27434587,12.514455 0.03955379,9.1327998 -1.6878013,6.2086981 0.92535078,4.0394672 1.7715784,0.75039054 5.1532339,1.0642902 8.0773355,-0.66306492 10.246566,1.9500872 l 3.289077,0.8462276 -0.3139,3.3816555 z"
       transform="matrix(0.68314932,0,0,0.68314932,18.011628,12.932673)" />
    <path
       style="fill:#5f4316;fill-opacity:0;fill-rule:nonzero;stroke:#312114;stroke-width:0.30749;stroke-linejoin:miter;stroke-dasharray:none;stroke-opacity:1"
       id="path1620-8-5-7-3-2-7-0"
       d="M 14.949099,9.1020719 12.335946,11.271303 11.489719,14.560379 8.1080634,14.24648 5.1839617,15.973835 3.0147308,13.360683 -0.27434587,12.514455 0.03955379,9.1327998 -1.6878013,6.2086981 0.92535078,4.0394672 1.7715784,0.75039054 5.1532339,1.0642902 8.0773355,-0.66306492 10.246566,1.9500872 l 3.289077,0.8462276 -0.3139,3.3816555 z"
       transform="matrix(0.56047966,0,0,0.56047966,18.825007,13.871757)" />
    <path
       style="fill:#5f4316;fill-opacity:0;fill-rule:nonzero;stroke:#312114;stroke-width:0.30749;stroke-linejoin:miter;stroke-dasharray:none;stroke-opacity:1"
       id="path1620-8-5-7-3-2-7-0-0"
       d="M 14.949099,9.1020719 12.335946,11.271303 11.489719,14.560379 8.1080634,14.24648 5.1839617,15.973835 3.0147308,13.360683 -0.27434587,12.514455 0.03955379,9.1327998 -1.6878013,6.2086981 0.92535078,4.0394672 1.7715784,0.75039054 5.1532339,1.0642902 8.0773355,-0.66306492 10.246566,1.9500872 l 3.289077,0.8462276 -0.3139,3.3816555 z"
       transform="matrix(0.44855257,0,0,0.44855257,19.567157,14.728601)" />
    <path
       style="fill:#5f4316;fill-opacity:0;fill-rule:nonzero;stroke:#312114;stroke-width:0.30749;stroke-linejoin:miter;stroke-dasharray:none;stroke-opacity:1"
       id="path1620-8-5-7-3-2-7-0-0-8"
       d="M 14.949099,9.1020719 12.335946,11.271303 11.489719,14.560379 8.1080634,14.24648 5.1839617,15.973835 3.0147308,13.360683 -0.27434587,12.514455 0.03955379,9.1327998 -1.6878013,6.2086981 0.92535078,4.0394672 1.7715784,0.75039054 5.1532339,1.0642902 8.0773355,-0.66306492 10.246566,1.9500872 l 3.289077,0.8462276 -0.3139,3.3816555 z"
       transform="matrix(0.33713147,0,0,0.33713147,20.305951,15.581573)" />
    <path
       style="fill:#312114;fill-opacity:1;fill-rule:nonzero;stroke:#4b2e00;stroke-width:0;stroke-linejoin:miter;stroke-dasharray:none;stroke-opacity:1"
       id="path1620-8-5-7-3-2-7-0-0-8-4"
       d="M 14.949099,9.1020719 12.335946,11.271303 11.489719,14.560379 8.1080634,14.24648 5.1839617,15.973835 3.0147308,13.360683 -0.27434587,12.514455 0.03955379,9.1327998 -1.6878013,6.2086981 0.92535078,4.0394672 1.7715784,0.75039054 5.1532339,1.0642902 8.0773355,-0.66306492 10.246566,1.9500872 l 3.289077,0.8462276 -0.3139,3.3816555 z"
       transform="matrix(0.23693543,0,0,0.23693543,20.970315,16.348612)" />
    <path
       d="M -0.83413748,4.2764791 3.4452274,-1.1468575 11.998463,-2.7232919 4.1219624,3.606736 -1.956872,13.557009 -7.1483615,15.538705 Z"
       fill="#6d4a2c"
       stroke="#1b1917"
       stroke-width="1.4314"
       stroke-miterlimit="16"
       stroke-linejoin="round"
       id="path4-3"
       style="stroke:#312114;stroke-opacity:1" />
    <path
       d="M 6.2575458,12.017013 C 6.6596266,9.8617665 5.6892512,5.184417 3.0917574,6.5349082 0.62347321,8.1091946 4.1887712,11.288242 6.2563594,12.017804 l 3.779e-4,7.73e-4 c 3.78e-4,-3.78e-4 6.245e-4,-0.0014 8.052e-4,-0.0016 z"
       fill="#5f926a"
       id="path46-67"
       style="fill:#d1982e;fill-opacity:0.92156863;stroke-width:0.279834" />
    <path
       d="m 11.045904,4.4026154 -0.0022,6.08e-4 C 8.4699948,3.1651333 2.2654511,2.8018352 3.0915764,6.5347327 4.2426116,10.180565 9.4340391,6.7636736 11.044141,4.4048155 l 0.0022,-6.08e-4 c -3.95e-4,0 -9.53e-4,-1.972e-4 -0.0011,-3.944e-4 3.77e-4,-3.779e-4 3.77e-4,-7.723e-4 8.05e-4,-0.0012 z"
       fill="#587e60"
       id="path48-5"
       style="fill:#d6a243;fill-opacity:0.92156863;stroke-width:0.279834" />
    <path
       d="M 0.09986808,-0.08862976 C 2.2209694,0.30708087 6.8242157,-0.64792155 5.4951221,-3.2042622 3.9457765,-5.6334416 0.81709326,-2.1246292 0.09909018,-0.08979645 l -7.7232e-4,3.7794e-4 c 3.7794e-4,3.7794e-4 0.0013639,6.08e-4 0.0015282,7.7232e-4 z"
       fill="#5f926a"
       id="path46-6-3"
       style="fill:#d1982e;fill-opacity:0.92156863;stroke-width:0.275403" />
    <path
       d="m 3.9245304,-9.5965391 6.064e-4,0.00212 C 2.7066517,-7.0614415 2.3491105,-0.95519374 6.0228683,-1.7682309 9.6109402,-2.9010314 6.248182,-8.0102118 3.9266948,-9.5948053 l -6.063e-4,-0.00212 c 0,3.78e-4 -1.89e-4,9.482e-4 -3.796e-4,0.00114 -3.796e-4,-3.796e-4 -7.576e-4,-3.796e-4 -0.00117,-7.888e-4 z"
       fill="#587e60"
       id="path48-7-5"
       style="fill:#d6a243;fill-opacity:0.92156863;stroke-width:0.275403" />
    <path
       d="m 5.6302846,2.1363612 -5.751e-4,9.695e-4 C 3.9260086,2.6957255 1.0184455,5.2178307 3.0915734,6.5346834 5.2687836,7.6718678 5.9991365,3.8926678 5.6308928,2.137721 l 3.779e-4,-7.723e-4 c 3.944e-4,0 0,0 0,0 0,-3.944e-4 -9.53e-4,-1.972e-4 -9.695e-4,-5.751e-4 z"
       fill="#77a37a"
       id="path50-6"
       style="fill:#d1982e;fill-opacity:0.92156863;stroke-width:0.279834" />
    <path
       d="M 7.3676276,38.030924 3.2256314,34.76262 2.0216521,28.230208 l 4.8344687,6.015566 7.5993792,4.642623 1.513492,3.964926 z"
       fill="#6d4a2c"
       stroke="#1b1917"
       stroke-width="1.09321"
       stroke-miterlimit="16"
       stroke-linejoin="round"
       id="path4-3-7"
       style="stroke:#312114;stroke-opacity:1" />
    <path
       d="m 13.27935,32.614752 c -1.646039,-0.307083 -5.2182978,0.434027 -4.1868794,2.417826 1.2023384,1.885117 3.6302914,-0.837829 4.1874834,-2.41692 l 5.9e-4,-2.88e-4 c -2.88e-4,-2.89e-4 -0.0011,-4.77e-4 -0.0012,-6.15e-4 z"
       fill="#5f926a"
       id="path46-67-9"
       style="fill:#d1982e;fill-opacity:0.92156863;stroke-width:0.213719" />
    <path
       d="m 7.4639623,28.957712 4.644e-4,0.0016 c -0.9455737,1.96567 -1.2230374,6.704302 1.6279099,6.07336 2.7844524,-0.879087 0.1748504,-4.843965 -1.6266939,-6.073658 l -4.644e-4,-0.0016 c 0,3.01e-4 -1.506e-4,7.28e-4 -3.012e-4,8.79e-4 -2.886e-4,-2.89e-4 -5.898e-4,-2.89e-4 -9.161e-4,-6.15e-4 z"
       fill="#587e60"
       id="path48-5-2"
       style="fill:#d6a243;fill-opacity:0.92156863;stroke-width:0.213719" />
    <path
       d="M 4.0338378,37.317591 C 4.3360562,35.69763 3.6066867,32.181966 1.654318,33.197042 c -1.85525127,1.183291 0.8245543,3.572778 2.3786288,4.121143 l 2.886e-4,5.9e-4 c 2.887e-4,-2.89e-4 4.644e-4,-0.001 5.899e-4,-0.0012 z"
       fill="#5f926a"
       id="path46-6-3-0"
       style="fill:#d1982e;fill-opacity:0.92156863;stroke-width:0.210335" />
    <path
       d="m -3.2276925,34.396559 0.00162,-4.63e-4 c 1.934522,0.930601 6.5980817,1.203668 5.9771362,-1.602112 -0.8651603,-2.740339 -4.767224,-0.17208 -5.9774347,1.600922 l -0.00162,4.64e-4 c 2.887e-4,0 7.242e-4,1.44e-4 8.698e-4,2.89e-4 -2.899e-4,2.9e-4 -2.899e-4,5.79e-4 -6.024e-4,8.91e-4 z"
       fill="#587e60"
       id="path48-7-5-2"
       style="fill:#d6a243;fill-opacity:0.92156863;stroke-width:0.210335" />
    <path
       d="m 5.733143,33.093814 7.405e-4,4.39e-4 c 0.426466,1.301177 2.352688,3.521787 3.3584154,1.938466 0.8685085,-1.662814 -2.0178018,-2.22061 -3.3581174,-1.93937 l -5.898e-4,-2.88e-4 c 0,-3.01e-4 0,0 0,0 -3.012e-4,0 -1.506e-4,7.28e-4 -4.393e-4,7.4e-4 z"
       fill="#77a37a"
       id="path50-6-3"
       style="fill:#d1982e;fill-opacity:0.92156863;stroke-width:0.213719" />
    <path
       d="M 49.014449,3.2292583 48.116543,9.4024836 42.139562,14.497016 45.441105,5.9906589 45.70233,-4.5351357 48.867411,-8.4287763 Z"
       fill="#6d4a2c"
       stroke="#1b1917"
       stroke-width="1.29254"
       stroke-miterlimit="16"
       stroke-linejoin="round"
       id="path4-3-5"
       style="stroke:#312114;stroke-opacity:1" />
    <path
       d="m 39.973857,0.3779267 c 0.65865,1.8669658 3.529294,5.0865896 4.950826,2.8577343 1.219446,-2.34552835 -3.003984,-3.22186785 -4.950256,-2.85888883 l -6.44e-4,-4.3332e-4 c -1.25e-4,4.662e-4 1.35e-4,0.001361 7.5e-5,0.001584 z"
       fill="#5f926a"
       id="path46-67-92"
       style="fill:#d1982e;fill-opacity:0.92156863;stroke-width:0.252687" />
    <path
       d="m 39.667164,8.4943956 0.0014,-0.00145 c 2.5717,-0.1938365 7.587755,-2.7110525 5.256331,-5.2572317 -2.546198,-2.33139841 -5.063248,2.6845546 -5.257354,5.2561627 l -0.0014,0.00145 c 3.08e-4,-1.781e-4 8.34e-4,-2.761e-4 0.0011,-2.11e-4 -1.25e-4,4.662e-4 5.3e-5,7.746e-4 -8.8e-5,0.0013 z"
       fill="#587e60"
       id="path48-5-28"
       style="fill:#d6a243;fill-opacity:0.92156863;stroke-width:0.252687" />
    <path
       d="m 50.254869,7.0645244 c -1.837388,0.6482158 -5.006003,3.4733806 -2.812461,4.8723916 2.308369,1.200125 3.170826,-2.9563922 2.813596,-4.8718305 l 4.34e-4,-6.442e-4 c -4.66e-4,-1.25e-4 -0.0013,1.403e-4 -0.0015,8.6e-5 z"
       fill="#5f926a"
       id="path46-6-3-9"
       style="fill:#d1982e;fill-opacity:0.92156863;stroke-width:0.248686" />
    <path
       d="m 51.55671,16.226639 -0.0014,-0.0014 c -0.190754,-2.530955 -2.668092,-7.4675419 -5.173932,-5.173054 -2.294462,2.505859 2.642024,4.983031 5.17289,5.174063 l 0.0014,0.0014 c -1.71e-4,-2.96e-4 -2.81e-4,-8.27e-4 -2.18e-4,-0.0011 4.69e-4,1.25e-4 7.64e-4,-4.5e-5 0.0013,9e-5 z"
       fill="#587e60"
       id="path48-7-5-7"
       style="fill:#d6a243;fill-opacity:0.92156863;stroke-width:0.248686" />
    <path
       d="m 44.925446,7.8215093 1.2e-5,-0.00102 c 1.080202,-1.2058836 2.215233,-4.4909498 -5.3e-4,-4.5847378 -2.216037,0.093707 -1.080892,3.3788376 -5.72e-4,4.5849668 l 5.3e-5,7.746e-4 c -3.08e-4,1.781e-4 0,0 0,0 1.78e-4,3.084e-4 8.34e-4,-2.761e-4 0.001,1.2e-5 z"
       fill="#77a37a"
       id="path50-6-36"
       style="fill:#d1982e;fill-opacity:0.92156863;stroke-width:0.252687" />
  </g>
  <metadata
     id="metadata6004">
    <rdf:RDF>
      <cc:Work
         rdf:about="">
        <dc:creator>
          <cc:Agent>
            <dc:title>Radians</dc:title>
          </cc:Agent>
        </dc:creator>
      </cc:Work>
    </rdf:RDF>
  </metadata>
</svg>

<svg xmlns="http://www.w3.org/2000/svg" width="236.926" height="217.725" viewBox="0 0 62.687 57.606"><path d="m14.95 9.102-2.614 2.17-.846 3.288-3.382-.314-2.924 1.728-2.17-2.613-3.288-.847.314-3.381-1.728-2.924 2.613-2.17L1.772.75l3.381.314L8.077-.663l2.17 2.613 3.289.846-.314 3.382z" style="fill:#6d4a2c;fill-opacity:1;stroke:#312114;stroke-width:.79375;stroke-linejoin:round;stroke-dasharray:none;stroke-opacity:1" transform="matrix(1.6576 0 0 1.6576 19.89 16.114)"/><path fill="none" d="m14.95 9.102-2.614 2.17-.846 3.288-3.382-.314-2.924 1.728-2.17-2.613-3.288-.847.314-3.381-1.728-2.924 2.613-2.17L1.772.75l3.381.314L8.077-.663l2.17 2.613 3.289.846-.314 3.382z" style="fill:#5f4316;fill-opacity:0;fill-rule:nonzero;stroke:#312114;stroke-width:.30749;stroke-linejoin:miter;stroke-dasharray:none;stroke-opacity:1" transform="matrix(1.4263 0 0 1.4263 21.423 17.884)"/><path fill="none" d="m14.95 9.102-2.614 2.17-.846 3.288-3.382-.314-2.924 1.728-2.17-2.613-3.288-.847.314-3.381-1.728-2.924 2.613-2.17L1.772.75l3.381.314L8.077-.663l2.17 2.613 3.289.846-.314 3.382z" style="fill:#5f4316;fill-opacity:0;fill-rule:nonzero;stroke:#312114;stroke-width:.30749;stroke-linejoin:miter;stroke-dasharray:none;stroke-opacity:1" transform="matrix(1.28074 0 0 1.28074 22.389 18.999)"/><path fill="none" d="m14.95 9.102-2.614 2.17-.846 3.288-3.382-.314-2.924 1.728-2.17-2.613-3.288-.847.314-3.381-1.728-2.924 2.613-2.17L1.772.75l3.381.314L8.077-.663l2.17 2.613 3.289.846-.314 3.382z" style="fill:#5f4316;fill-opacity:0;fill-rule:nonzero;stroke:#312114;stroke-width:.30749;stroke-linejoin:miter;stroke-dasharray:none;stroke-opacity:1" transform="matrix(1.143 0 0 1.143 23.302 20.053)"/><path fill="none" d="m14.95 9.102-2.614 2.17-.846 3.288-3.382-.314-2.924 1.728-2.17-2.613-3.288-.847.314-3.381-1.728-2.924 2.613-2.17L1.772.75l3.381.314L8.077-.663l2.17 2.613 3.289.846-.314 3.382z" style="fill:#5f4316;fill-opacity:0;fill-rule:nonzero;stroke:#312114;stroke-width:.30749;stroke-linejoin:miter;stroke-dasharray:none;stroke-opacity:1" transform="matrix(1.00487 0 0 1.00487 24.218 21.11)"/><path fill="none" d="m14.95 9.102-2.614 2.17-.846 3.288-3.382-.314-2.924 1.728-2.17-2.613-3.288-.847.314-3.381-1.728-2.924 2.613-2.17L1.772.75l3.381.314L8.077-.663l2.17 2.613 3.289.846-.314 3.382z" style="fill:#5f4316;fill-opacity:0;fill-rule:nonzero;stroke:#312114;stroke-width:.30749;stroke-linejoin:miter;stroke-dasharray:none;stroke-opacity:1" transform="translate(25.256 22.309)scale(.84836)"/><path fill="none" d="m14.95 9.102-2.614 2.17-.846 3.288-3.382-.314-2.924 1.728-2.17-2.613-3.288-.847.314-3.381-1.728-2.924 2.613-2.17L1.772.75l3.381.314L8.077-.663l2.17 2.613 3.289.846-.314 3.382z" style="fill:#5f4316;fill-opacity:0;fill-rule:nonzero;stroke:#312114;stroke-width:.30749;stroke-linejoin:miter;stroke-dasharray:none;stroke-opacity:1" transform="matrix(.68315 0 0 .68315 26.351 23.573)"/><path fill="none" d="m14.95 9.102-2.614 2.17-.846 3.288-3.382-.314-2.924 1.728-2.17-2.613-3.288-.847.314-3.381-1.728-2.924 2.613-2.17L1.772.75l3.381.314L8.077-.663l2.17 2.613 3.289.846-.314 3.382z" style="fill:#5f4316;fill-opacity:0;fill-rule:nonzero;stroke:#312114;stroke-width:.30749;stroke-linejoin:miter;stroke-dasharray:none;stroke-opacity:1" transform="matrix(.56048 0 0 .56048 27.164 24.512)"/><path fill="none" d="m14.95 9.102-2.614 2.17-.846 3.288-3.382-.314-2.924 1.728-2.17-2.613-3.288-.847.314-3.381-1.728-2.924 2.613-2.17L1.772.75l3.381.314L8.077-.663l2.17 2.613 3.289.846-.314 3.382z" style="fill:#5f4316;fill-opacity:0;fill-rule:nonzero;stroke:#312114;stroke-width:.30749;stroke-linejoin:miter;stroke-dasharray:none;stroke-opacity:1" transform="matrix(.44855 0 0 .44855 27.907 25.37)"/><path fill="none" d="m14.95 9.102-2.614 2.17-.846 3.288-3.382-.314-2.924 1.728-2.17-2.613-3.288-.847.314-3.381-1.728-2.924 2.613-2.17L1.772.75l3.381.314L8.077-.663l2.17 2.613 3.289.846-.314 3.382z" style="fill:#5f4316;fill-opacity:0;fill-rule:nonzero;stroke:#312114;stroke-width:.30749;stroke-linejoin:miter;stroke-dasharray:none;stroke-opacity:1" transform="translate(28.645 26.222)scale(.33713)"/><path d="m14.95 9.102-2.614 2.17-.846 3.288-3.382-.314-2.924 1.728-2.17-2.613-3.288-.847.314-3.381-1.728-2.924 2.613-2.17L1.772.75l3.381.314L8.077-.663l2.17 2.613 3.289.846-.314 3.382z" style="fill:#312114;fill-opacity:1;fill-rule:nonzero;stroke:#4b2e00;stroke-width:0;stroke-linejoin:miter;stroke-dasharray:none;stroke-opacity:1" transform="matrix(.23694 0 0 .23694 29.31 26.99)"/><path fill="#6d4a2c" stroke="#1b1917" stroke-linejoin="round" stroke-miterlimit="16" stroke-width="1.431" d="m-.834 4.276 4.28-5.423 8.552-1.576-7.876 6.33-6.079 9.95-5.191 1.982Z" style="stroke:#312114;stroke-opacity:1" transform="translate(8.34 10.64)"/><path fill="#5f926a" d="M6.258 12.017c.402-2.155-.569-6.833-3.166-5.482-2.469 1.574 1.097 4.753 3.164 5.483z" style="fill:#d1982e;fill-opacity:.92156863;stroke-width:.279834" transform="translate(8.34 10.64)"/><path fill="#587e60" d="M11.046 4.403h-.002C8.47 3.165 2.265 2.802 3.092 6.535c1.15 3.646 6.342.229 7.952-2.13h.002z" style="fill:#d6a243;fill-opacity:.92156863;stroke-width:.279834" transform="translate(8.34 10.64)"/><path fill="#5f926a" d="M.1-.089C2.22.307 6.824-.648 5.495-3.204 3.945-5.634.817-2.124.1-.09z" style="fill:#d1982e;fill-opacity:.92156863;stroke-width:.275403" transform="translate(8.34 10.64)"/><path fill="#587e60" d="M3.925-9.597v.003C2.707-7.061 2.35-.955 6.023-1.768c3.588-1.133.225-6.242-2.096-7.827v-.002l-.001.001z" style="fill:#d6a243;fill-opacity:.92156863;stroke-width:.275403" transform="translate(8.34 10.64)"/><path fill="#77a37a" d="M5.63 2.136v.001c-1.704.559-4.612 3.08-2.538 4.398C5.269 7.672 5.999 3.893 5.63 2.138v-.001" style="fill:#d1982e;fill-opacity:.92156863;stroke-width:.279834" transform="translate(8.34 10.64)"/><path fill="#6d4a2c" stroke="#1b1917" stroke-linejoin="round" stroke-miterlimit="16" stroke-width="1.093" d="m7.368 38.03-4.142-3.267-1.204-6.533 4.834 6.016 7.6 4.642 1.513 3.965z" style="stroke:#312114;stroke-opacity:1" transform="translate(8.34 10.64)"/><path fill="#5f926a" d="M13.28 32.615c-1.647-.307-5.219.434-4.188 2.418 1.203 1.885 3.63-.838 4.188-2.417z" style="fill:#d1982e;fill-opacity:.92156863;stroke-width:.213719" transform="translate(8.34 10.64)"/><path fill="#587e60" d="M7.464 28.958v.001c-.945 1.966-1.223 6.705 1.628 6.074 2.785-.88.175-4.844-1.626-6.074v-.002z" style="fill:#d6a243;fill-opacity:.92156863;stroke-width:.213719" transform="translate(8.34 10.64)"/><path fill="#5f926a" d="M4.034 37.318c.302-1.62-.427-5.136-2.38-4.121-1.855 1.183.825 3.573 2.379 4.121" style="fill:#d1982e;fill-opacity:.92156863;stroke-width:.210335" transform="translate(8.34 10.64)"/><path fill="#587e60" d="M-3.228 34.397h.002c1.934.93 6.598 1.203 5.977-1.603-.865-2.74-4.767-.172-5.977 1.6l-.002.001z" style="fill:#d6a243;fill-opacity:.92156863;stroke-width:.210335" transform="translate(8.34 10.64)"/><path fill="#77a37a" d="M5.733 33.094c.427 1.301 2.354 3.522 3.36 1.939.868-1.663-2.019-2.22-3.359-1.94" style="fill:#d1982e;fill-opacity:.92156863;stroke-width:.213719" transform="translate(8.34 10.64)"/><path fill="#6d4a2c" stroke="#1b1917" stroke-linejoin="round" stroke-miterlimit="16" stroke-width="1.293" d="m49.014 3.23-.897 6.172-5.977 5.095 3.301-8.506.261-10.526 3.165-3.894Z" style="stroke:#312114;stroke-opacity:1" transform="translate(8.34 10.64)"/><path fill="#5f926a" d="M39.974.378c.659 1.867 3.53 5.087 4.95 2.858C46.145.89 41.922.014 39.975.376z" style="fill:#d1982e;fill-opacity:.92156863;stroke-width:.252687" transform="translate(8.34 10.64)"/><path fill="#587e60" d="m39.667 8.494.002-.001c2.571-.194 7.587-2.711 5.256-5.257-2.546-2.332-5.063 2.684-5.257 5.256z" style="fill:#d6a243;fill-opacity:.92156863;stroke-width:.252687" transform="translate(8.34 10.64)"/><path fill="#5f926a" d="M50.255 7.065c-1.838.648-5.006 3.473-2.813 4.872 2.309 1.2 3.171-2.956 2.814-4.872z" style="fill:#d1982e;fill-opacity:.92156863;stroke-width:.248686" transform="translate(8.34 10.64)"/><path fill="#587e60" d="m51.557 16.227-.002-.002c-.19-2.53-2.668-7.467-5.174-5.173-2.294 2.506 2.642 4.983 5.173 5.174l.002.002v-.001" style="fill:#d6a243;fill-opacity:.92156863;stroke-width:.248686" transform="translate(8.34 10.64)"/><path fill="#77a37a" d="M44.925 7.822V7.82c1.08-1.205 2.216-4.49 0-4.584-2.216.093-1.081 3.379 0 4.585" style="fill:#d1982e;fill-opacity:.92156863;stroke-width:.252687" transform="translate(8.34 10.64)"/></svg>
